X: 1045
T: Michael McGoldrick's (A22)
N: page A22
N: heptatonic
M: 6/8
L: 1/8
R: jig
K: Dmaj
"D"f3 "A"efg|"D"fdA "G"G3|"D"FAd "G"GBe|\
"A"AB/c/d efg| "D"f3 "A"efg|"D"fdA "G"G3|
"D"FAd "G"GBe|"A"Adc "D"d3:: "Bm"B3 BAB|\
f2a fec|"A"eee fec|Ace "G"fec|
"Bm"B3 BAB|f2a fec|"A"eee fec|BcA "G"B3:|
